X:1
M:3/4
L:1/8
K:G
V:A
D2 _ez [B^D^F]F | Z3 | E5 |
V:B
G4 F2 |A4 A | B6 | Z2 |
V:A
B2 D2 ^F^F| FE FE FE |
V:B
A2 D2 ^Fc
